X:1
T:Thus saith the high and lofty one
T:Thus saith the high and lofty one - Montserrat (Thomas Clark)
C:Thomas Clark
Z:Text: Isaac Watts
%%score [ 1 2 3 4 ]
L:1/8
M:4/4
K:G
V:1 treble nm="SOPRANO" snm="S."
V:2 treble nm="ALTO" snm="A."
V:3 treble-8 transpose=-12 nm="TENOR" snm="T."
V:4 bass nm="BASS" snm="B."
V:1
"^Maestoso" G2 G>A B2 d2 | c3 c B2 z B | e3 f g2 (fe) | d2 ^c2 !fermata!B3 A | d2 d2 d3 A | %5
w: The hum- ble soul my|words re- vive, I|bid the mour- ning _|sin- ner live, Heal|all the bro- ken|
w: Thus saith the high and|lof- ty one, I|sit up- on my _|ho- ly throne: My|name is God, I|
w: But I des- cend to|worlds be- low, On|earth I have a _|man- sion too; The|hum- ble spi- rit|
 f2 f2 f4 | d2 ^cB A2 d2 | e2 ^c2 !fermata!d3 d | %8
w: hearts I find,|And ease the sor- rows|of the mind, Heal|
w: dwell on high,|Dwell in my own e-|ter- ni- ty, My|
w: and con- trite|Is an a- bode of|my de- light, The|
 c2 B2 A3"^When I contend against their sin,I make them know how vile they’ve been;But should my wrath for ever smoke,Their souls would sink beneath my stroke.O may thy pard’ning grace be nigh,Lest we should faint, despair, and die!Thus shall our better thoughts approveThe methods of thy chast’ning love." d | %9
w: all the bro- ken|
w: name is God, I|
w: hum- ble spi- rit|
 B2 G2 d4 | G2 AB c2 B2 | A3 A G4 |] %12
w: hearts I find,|And ease the sor- rows|of the mind.|
w: dwell on high,|Dwell in my own e-|ter- ni- ty.|
w: and con- trite|Is an a- bode of|my de- light.|
V:2
 D2 D>D D2 G2 | G2 F2 G2 z G | G3 C (DE)(FG) | F2 F2 !fermata!F3 D | F2 F2 F3 F | A2 A2 A4 | %6
w: The hum- ble soul my|words re- vive, I|bid the mour- * ning _|sin- ner live, Heal|all the bro- ken|hearts I find,|
w: Thus saith the high and|lof- ty one, I|sit up- on _ my _|ho- ly throne: My|name is God, I|dwell on high,|
w: But I des- cend to|worlds be- low, On|earth I have _ a _|man- sion too; The|hum- ble spi- rit|and con- trite|
 F2 EE A2 F2 | G2 E2 !fermata!F3 G | D2 D2 D3 D | B,2 G,2 D4 | D2 FG F2 G2 | G2 F2 G4 |] %12
w: And ease the sor- rows|of the mind, Heal|all the bro- ken|hearts I find,|And ease the sor- rows|of the mind.|
w: Dwell in my own e-|ter- ni- ty, My|name is God, I|dwell on high,|Dwell in my own e-|ter- ni- ty.|
w: Is an a- bode of|my de- light, The|hum- ble spi- rit|and con- trite|Is an a- bode of|my de- light.|
V:3
 B2 G>F G2 d2 | e2 c2 d2 z d | c3 c (B^c)(dc) | B2 ^A2 !fermata!B3 F | A2 A2 A3 A | d2 d2 d4 | %6
w: The hum- ble soul my|words re- vive, I|bid the mour- * ning _|sin- ner live, Heal|all the bro- ken|hearts I find,|
w: Thus saith the high and|lof- ty one, I|sit up- on _ my _|ho- ly throne: My|name is God, I|dwell on high,|
w: But I des- cend to|worlds be- low, On|earth I have _ a _|man- sion too; The|hum- ble spi- rit|and con- trite|
 A2 A(B/^c/) d2 A2 | B2 A2 !fermata!A3 B | A2 G2 F3 d | B2 G2 d4 | d2 dd d2 d2 | e2 (dc) B4 |] %12
w: And ease the _ sor- rows|of the mind, Heal|all the bro- ken|hearts I find,|And ease the sor- rows|of the _ mind.|
w: Dwell in my _ own e-|ter- ni- ty, My|name is God, I|dwell on high,|Dwell in my own e-|ter- ni- * ty.|
w: Is an a- * bode of|my de- light, The|hum- ble spi- rit|and con- trite|Is an a- bode of|my de- * light.|
V:4
 G,,2"^6" B,,>D, G,2"^6" B,2 |"^7" A,3"^6" A, G,2 z G, | C3"^6" A, (G,"^6"E,)"^6"(D,"^6"E,) | %3
w: The hum- ble soul my|words re- vive, I|bid the mour- * ning _|
w: Thus saith the high and|lof- ty one, I|sit up- on _ my _|
w: But I des- cend to|worlds be- low, On|earth I have _ a _|
"^64" F,2"^5#" F,2 !fermata!B,,3 D, | D,2 D,2 D,3 D, | D2 D2 D4 | D,2"^#" A,"^6"G,"^6" F,2 D,2 | %7
w: sin- ner live, Heal|all the bro- ken|hearts I find,|And ease the sor- rows|
w: ho- ly throne: My|name is God, I|dwell on high,|Dwell in my own e-|
w: man- sion too; The|hum- ble spi- rit|and con- trite|Is an a- bode of|
"^6" G,2"^#" A,2 !fermata!D,3 G, | %8
w: of the mind, Heal|
w: ter- ni- ty, My|
w: my de- light, The|
"^Notes:The order of staves in the source is Tenor - [Alto] - Air - [Bass], with the alto part printed in the treble clef an octave abovesounding pitch.Only the first verse of text is given in the source: subsequent verses have here been added editorially.""^6T" F,2 G,2 D,3"^unis" D | %9
w: all the bro- ken|
w: name is God, I|
w: hum- ble spi- rit|
 B,2 G,2 D4 |"^6" B,2"^42" C"^6"B,"^43" A,2 G,2 |"^65" C,2"^8""^7" D,2 G,,4 |] %12
w: hearts I find,|And ease the sor- rows|of the mind.|
w: dwell on high,|Dwell in my own e-|ter- ni- ty.|
w: and con- trite|Is an a- bode of|my de- light.|

